Adwaita++-Light/panel/16/btsync-gui-3.svg

<svg height="16" width="16" xmlns="http://www.w3.org/2000/svg">
  <path d="m9.8117334 1.2385192c-3.7340278-1.0005298-7.5726843 1.2157196-8.5732141 4.9497475-1.00052981 3.7340277 1.2157195 7.5726843 4.9497474 8.5732143 3.7340277 1.000529 7.5726853-1.21572 8.5732143-4.9497477 1.00053-3.7340279-1.21572-7.5726844-4.9497476-8.5732141zm-.5176381 1.9318517c2.3365777.6260839 3.8414047 2.8075909 3.6981377 5.1320177l1.062141.2845997-2.708308 2.3801397-1.155395-3.4154157.788587.2113012c-.098091-1.2301075-.94274-2.3231589-2.2028007-2.6607911-.6895232-.183456-1.4218584-.1151485-2.0655593.1926619l-1.4625756-1.4615466c1.1918293-.7891329 2.6644144-1.0304404 4.0457729-.6629668zm-4.6401605 1.8625012 1.1553946 3.4154156-.7885881-.2113011c.098091 1.2301074.942741 2.3231584 2.2028018 2.6607914.6895221.183456 1.4218582.115148 2.0655599-.192662l1.462575 1.461546c-1.1918296.789133-2.6644066 1.030411-4.0457731.662967-2.3365781-.626083-3.8414042-2.807591-3.6981382-5.132017l-1.0621405-.2846005z" fill="#444"/>
</svg>

<svg xmlns="http://www.w3.org/2000/svg" width="16" height="16" version="1.1">
 <defs>
  <style id="current-color-scheme" type="text/css">
   .ColorScheme-Text { color:#444444; } .ColorScheme-Highlight { color:#4285f4; }
  </style>
 </defs>
 <path style="fill:currentColor" class="ColorScheme-Text" d="M 9.8117334,1.2385192 C 6.0777056,0.2379894 2.2390491,2.4542388 1.2385193,6.1882667 0.23798949,9.9222944 2.4542388,13.760951 6.1882667,14.761481 9.9222944,15.76201 13.760952,13.545761 14.761481,9.8117333 15.762011,6.0777054 13.545761,2.2390489 9.8117334,1.2385192 Z M 9.2940953,3.1703709 C 11.630673,3.7964548 13.1355,5.9779618 12.992233,8.3023886 l 1.062141,0.2845997 -2.708308,2.3801397 -1.155395,-3.4154157 0.788587,0.2113012 C 10.881167,6.532906 10.036518,5.4398546 8.7764573,5.1022224 8.0869341,4.9187664 7.3545989,4.9870739 6.710898,5.2948843 L 5.2483224,3.8333377 C 6.4401517,3.0442048 7.9127368,2.8028973 9.2940953,3.1703709 Z M 4.6539348,5.0328721 5.8093294,8.4482877 5.0207413,8.2369866 c 0.098091,1.2301074 0.942741,2.3231584 2.2028018,2.6607914 0.6895221,0.183456 1.4218582,0.115148 2.0655599,-0.192662 l 1.462575,1.461546 C 9.5598484,12.955795 8.0872714,13.197073 6.7059049,12.829629 4.3693268,12.203546 2.8645007,10.022038 3.0077667,7.697612 L 1.9456262,7.4130115 4.6539348,5.0328721 Z"/>
</svg>
